;FLAVOR:RepRap
;TIME:1148
;Filament used: 1.19357m
;Layer height: 0.2
;Generated with Cura_SteamEngine 3.5.1
T0
M190 S50
M104 S195
M109 S195
M82 ;absolute extrusion mode
G28 XY                  ; Home XY
M561                    ; Clear any bed transform that might be in place
G1 X154.5 Y107.5 F4000  ; Move Probe to center of bed
G30                     ; Do a single probe
G29 S1                  ; Load heightmap
G1 Z5.0 F3000           ; Move Z Axis up little to prevent scratching of Heat Bed
G1 X0.1 Y20 Z0.3 F5000.0        ; Move to start position
G1 X0.1 Y200.0 Z0.3 F1500.0 E15 ; Draw the first line
G1 X0.4 Y200.0 Z0.3 F5000.0     ; Move to side a little
G1 X0.4 Y20 Z0.3 F1500.0 E30    ; Draw the second line
G1 Z5.0 F3000                   ; Move Z Axis up little to prevent scratching of Heat Bed
M83 ;relative extrusion mode
G1 F2400 E-1.5
;LAYER_COUNT:37
;LAYER:-6
M107
M204 T5000
M566 X1800 Y1800
G0 F7200 X96.447 Y96.46 Z0.24
M204 P500
M566 X1200 Y1200
;TYPE:SUPPORT-INTERFACE
G1 F2400 E1.5
G1 F1350 X96.944 Y95.976 E0.05538
G1 X97.862 Y95.153 E0.09842
G1 X98.618 Y94.523 E0.07855
G1 X99.557 Y93.801 E0.09455
G1 X100.219 Y93.331 E0.06481
G1 X101.175 Y92.71 E0.091
G1 X101.857 Y92.302 E0.06344
G1 X102.807 Y91.777 E0.08664
G1 X103.501 Y91.426 E0.06208
G1 X104.506 Y90.962 E0.08836
G1 X105.361 Y90.608 E0.07387
G1 X106.193 Y90.295 E0.07096
G1 X107.046 Y90.007 E0.07187
G1 X108.283 Y89.65 E0.10277
G1 X109.419 Y89.377 E0.09326
G1 X110.353 Y89.184 E0.07613
G1 X110.963 Y89.084 E0.04934
G1 X112.388 Y88.915 E0.11455
G1 X113.999 Y88.802 E0.12891
G1 X114.94 Y88.77 E0.07516
G1 X115.983 Y88.801 E0.08329
G1 X117.376 Y88.891 E0.11143
G1 X118.586 Y89.02 E0.09713
G1 X119.431 Y89.148 E0.06822
G1 X120.414 Y89.334 E0.07986
G1 X121.399 Y89.562 E0.08071
G1 X122.103 Y89.75 E0.05817
G1 X123.212 Y90.094 E0.09269
G1 X124.267 Y90.468 E0.08935
G1 X125.45 Y90.945 E0.10182
G1 X126.189 Y91.281 E0.0648
G1 X127.001 Y91.68 E0.07222
G1 X127.711 Y92.057 E0.06417
G1 X128.507 Y92.513 E0.07323
G1 X128.946 Y92.781 E0.04106
G1 X129.915 Y93.427 E0.09296
G1 X130.776 Y94.049 E0.08479
G1 X131.737 Y94.807 E0.0977
G1 X132.402 Y95.376 E0.06986
G1 X133.123 Y96.038 E0.07813
G1 X133.73 Y96.637 E0.06807
G1 X134.331 Y97.265 E0.06939
G1 X134.76 Y97.746 E0.05145
G1 X135.419 Y98.54 E0.08237
G1 X136.099 Y99.421 E0.08884
G1 X136.895 Y100.559 E0.11086
G1 X137.458 Y101.448 E0.084
G1 X137.998 Y102.372 E0.08543
G1 X138.278 Y102.899 E0.04764
G1 X138.681 Y103.715 E0.07265
G1 X139.025 Y104.472 E0.06637
G1 X139.457 Y105.529 E0.09115
G1 X139.823 Y106.537 E0.0856
G1 X140.197 Y107.707 E0.09805
G1 X140.42 Y108.522 E0.06745
G1 X140.712 Y109.812 E0.10558
G1 X140.894 Y110.808 E0.08082
G1 X141.041 Y111.811 E0.08092
G1 X141.095 Y112.281 E0.03776
G1 X141.174 Y113.286 E0.08047
G1 X141.198 Y114.013 E0.05806
G1 X141.223 Y114.352 E0.02713
G1 X141.231 Y114.561 E0.0167
G1 X141.227 Y115.611 E0.08382
G1 X141.196 Y116.378 E0.06128
G1 X141.128 Y117.341 E0.07706
G1 X141.049 Y118.105 E0.06131
G1 X140.91 Y119.129 E0.08249
G1 X140.825 Y119.633 E0.0408
G1 X140.626 Y120.614 E0.0799
G1 X140.444 Y121.384 E0.06316
G1 X140.131 Y122.505 E0.09291
G1 X139.805 Y123.519 E0.08502
G1 X139.308 Y124.847 E0.11319
G1 X138.875 Y125.856 E0.08765
G1 X138.373 Y126.909 E0.09312
G1 X137.987 Y127.639 E0.06592
G1 X137.439 Y128.585 E0.08727
G1 X137.016 Y129.259 E0.06352
G1 X136.318 Y130.278 E0.09859
G1 X135.657 Y131.161 E0.08805
G1 X134.89 Y132.1 E0.09678
G1 X134.34 Y132.721 E0.06622
G1 X133.549 Y133.547 E0.09129
G1 X132.961 Y134.115 E0.06526
G1 X132.061 Y134.916 E0.09617
G1 X131.175 Y135.639 E0.09128
G1 X130.083 Y136.451 E0.10863
G1 X129.222 Y137.032 E0.08291
G1 X128.216 Y137.655 E0.09445
G1 X127.495 Y138.062 E0.06609
G1 X126.457 Y138.596 E0.09318
G1 X125.734 Y138.932 E0.06364
G1 X124.638 Y139.389 E0.09479
G1 X123.607 Y139.771 E0.08777
G1 X122.126 Y140.232 E0.12381
G1 X120.965 Y140.532 E0.09572
G1 X119.425 Y140.85 E0.12552
G1 X118.619 Y140.973 E0.06508
G1 X117.246 Y141.119 E0.11022
G1 X116.109 Y141.19 E0.09094
G1 X114.66 Y141.214 E0.11568
G1 X113.449 Y141.175 E0.09672
G1 X112.21 Y141.082 E0.09918
G1 X111.584 Y141.009 E0.05031
G1 X110.593 Y140.853 E0.08008
G1 X109.558 Y140.654 E0.08413
G1 X108.313 Y140.361 E0.1021
G1 X107.484 Y140.128 E0.06874
G1 X106.582 Y139.84 E0.07558
G1 X105.831 Y139.574 E0.0636
G1 X104.451 Y139.004 E0.11918
G1 X103.213 Y138.419 E0.1093
G1 X101.988 Y137.772 E0.11059
G1 X101.27 Y137.35 E0.06648
G1 X100.466 Y136.839 E0.07604
G1 X99.989 Y136.513 E0.04612
G1 X99.283 Y136 E0.06966
G1 X98.618 Y135.484 E0.06719
G1 X97.795 Y134.792 E0.08583
G1 X97.006 Y134.078 E0.08494
G1 X95.941 Y133.015 E0.12011
G1 X95.208 Y132.204 E0.08726
G1 X94.321 Y131.127 E0.11137
G1 X93.702 Y130.301 E0.08239
G1 X92.948 Y129.197 E0.10672
G1 X92.406 Y128.315 E0.08264
G1 X91.712 Y127.059 E0.11455
G1 X91.209 Y126.035 E0.09107
G1 X90.54 Y124.456 E0.13689
G1 X90.086 Y123.193 E0.10713
G1 X89.802 Y122.305 E0.07442
G1 X89.756 Y122.144 E0.01337
G1 X89.564 Y121.374 E0.06335
G1 X89.201 Y119.697 E0.13697
G1 X89.029 Y118.729 E0.07848
G1 X88.961 Y118.2 E0.04257
G1 X88.864 Y117.234 E0.0775
G1 X88.802 Y116.33 E0.07233
G1 X88.772 Y115.562 E0.06135
G1 X88.767 Y114.631 E0.07432
G1 X88.804 Y113.995 E0.05085
G1 X88.822 Y113.384 E0.04879
G1 X88.924 Y112.13 E0.10043
G1 X89.033 Y111.278 E0.06856
G1 X89.184 Y110.344 E0.07552
G1 X89.331 Y109.586 E0.06163
G1 X89.624 Y108.349 E0.10147
G1 X89.815 Y107.66 E0.05707
G1 X90.185 Y106.508 E0.09658
G1 X90.556 Y105.494 E0.08619
G1 X91.003 Y104.403 E0.09411
G1 X91.34 Y103.668 E0.06454
G1 X91.746 Y102.85 E0.0729
G1 X92.04 Y102.304 E0.0495
G1 X92.61 Y101.336 E0.08967
G1 X93.141 Y100.503 E0.07885
G1 X93.947 Y99.358 E0.11177
G1 X94.704 Y98.387 E0.09828
G1 X95.313 Y97.661 E0.07564
G1 X95.685 Y97.247 E0.04443
G1 X96.447 Y96.46 E0.08744
M566 X1800 Y1800
G0 F7200 X96 Y96.921
M566 X1200 Y1200
G1 F1350 X96 Y133.073 E2.88581
M566 X1800 Y1800
G0 F7200 X97.6 Y134.615
M566 X1200 Y1200
G1 F1350 X97.6 Y95.387 E3.13135
M566 X1800 Y1800
G0 F7200 X99.2 Y94.075
M566 X1200 Y1200
G1 F1350 X99.2 Y135.935 E3.34145
M566 X1800 Y1800
G0 F7200 X100.8 Y137.051
M566 X1200 Y1200
G1 F1350 X100.8 Y92.953 E3.52009
M566 X1800 Y1800
G0 F7200 X102.4 Y92.001
M566 X1200 Y1200
G1 F1350 X102.4 Y137.989 E3.67096
M566 X1800 Y1800
G0 F7200 X104 Y138.79
M566 X1200 Y1200
G1 F1350 X104 Y91.195 E3.79924
M566 X1800 Y1800
G0 F7200 X105.6 Y90.518
M566 X1200 Y1200
G1 F1350 X105.6 Y139.478 E3.9082
M566 X1800 Y1800
G0 F7200 X107.2 Y140.037
M566 X1200 Y1200
G1 F1350 X107.2 Y89.962 E3.9972
M566 X1800 Y1800
G0 F7200 X108.8 Y89.525
M566 X1200 Y1200
G1 F1350 X108.8 Y140.475 E4.06705
M566 X1800 Y1800
G0 F7200 X110.4 Y140.815
M566 X1200 Y1200
G1 F1350 X110.4 Y89.176 E4.12205
M566 X1800 Y1800
G0 F7200 X112 Y88.961
M566 X1200 Y1200
G1 F1350 X112 Y141.057 E4.15853
M566 X1800 Y1800
G0 F7200 X113.6 Y141.179
M566 X1200 Y1200
G1 F1350 X113.6 Y88.829 E4.1788
M566 X1800 Y1800
G0 F7200 X115.2 Y88.778
M566 X1200 Y1200
G1 F1350 X115.2 Y141.206 E4.18503
M566 X1800 Y1800
G0 F7200 X116.8 Y141.147
M566 X1200 Y1200
G1 F1350 X116.8 Y88.854 E4.17425
M566 X1800 Y1800
G0 F7200 X118.4 Y89.001
M566 X1200 Y1200
G1 F1350 X118.4 Y140.997 E4.15055
M566 X1800 Y1800
G0 F7200 X120 Y140.732
M566 X1200 Y1200
G1 F1350 X120 Y89.256 E4.10904
M566 X1800 Y1800
G0 F7200 X121.6 Y89.616
M566 X1200 Y1200
G1 F1350 X121.6 Y140.368 E4.05124
M566 X1800 Y1800
G0 F7200 X123.2 Y139.898
M566 X1200 Y1200
G1 F1350 X123.2 Y90.091 E3.97581
M566 X1800 Y1800
G0 F7200 X124.8 Y90.683
M566 X1200 Y1200
G1 F1350 X124.8 Y139.322 E3.88258
M566 X1800 Y1800
G0 F7200 X126.4 Y138.623
M566 X1200 Y1200
G1 F1350 X126.4 Y91.385 E3.77074
M566 X1800 Y1800
G0 F7200 X128 Y92.223
M566 X1200 Y1200
G1 F1350 X128 Y137.777 E3.63632
M566 X1800 Y1800
G0 F7200 X129.6 Y136.777
M566 X1200 Y1200
G1 F1350 X129.6 Y93.217 E3.47715
M566 X1800 Y1800
G0 F7200 X131.2 Y94.384
M566 X1200 Y1200
G1 F1350 X131.2 Y135.619 E3.29156
M566 X1800 Y1800
G0 F7200 X132.8 Y134.259
M566 X1200 Y1200
G1 F1350 X132.8 Y95.742 E3.07459
M566 X1800 Y1800
G0 F7200 X134.4 Y97.343
M566 X1200 Y1200
G1 F1350 X134.4 Y132.654 E2.81868
M566 X1800 Y1800
G0 F7200 X136 Y130.703
M566 X1200 Y1200
G1 F1350 X136 Y99.293 E2.50728
M566 X1800 Y1800
G0 F7200 X137.6 Y101.691
M566 X1200 Y1200
G1 F1350 X137.6 Y128.308 E2.12468
M566 X1800 Y1800
G0 F7200 X139.2 Y125.099
M566 X1200 Y1200
G1 F1350 X139.2 Y104.901 E1.61229
M566 X1800 Y1800
G0 F7200 X140.8 Y110.294
M566 X1200 Y1200
G1 F1350 X140.8 Y119.757 E0.75538
M566 X1800 Y1800
G0 F7200 X94.4 Y131.222
M566 X1200 Y1200
G1 F1350 X94.4 Y98.776 E2.58998
M566 X1800 Y1800
G0 F7200 X92.8 Y101.037
M566 X1200 Y1200
G1 F1350 X92.8 Y128.956 E2.22862
M566 X1800 Y1800
G0 F7200 X91.2 Y126.013
M566 X1200 Y1200
G1 F1350 X91.2 Y103.973 E1.75933
M566 X1800 Y1800
G0 F7200 X89.6 Y108.45
M566 X1200 Y1200
G1 F1350 X89.6 Y121.518 E1.04314
M566 X1800 Y1800
G0 F7200 X94.32 Y131.125
;TIME_ELAPSED:78.056580
;LAYER:-5
M140 S50
G0 X94.32 Y131.125 Z0.54
M566 X1200 Y1200
;TYPE:SUPPORT
G1 F1350 X95.207 Y132.203 E0.13929
G1 X95.94 Y133.014 E0.10908
G1 X97.006 Y134.077 E0.15021
G1 X97.794 Y134.79 E0.10604
G1 X98.618 Y135.483 E0.10743
G1 X99.044 Y135.813 E0.05377
G1 X94.214 Y130.984 E0.68149
G1 X93.702 Y130.3 E0.08525
G1 X92.948 Y129.196 E0.1334
G1 X92.406 Y128.314 E0.1033
G1 X91.721 Y127.076 E0.14118
G1 X102.894 Y138.249 E1.57663
G1 X103.212 Y138.418 E0.03593
G1 X104.45 Y139.003 E0.13663
G1 X105.491 Y139.432 E0.11235
G1 X90.558 Y124.499 E2.10721
G1 X90.54 Y124.455 E0.00474
G1 X90.086 Y123.192 E0.13392
G1 X89.813 Y122.34 E0.08927
G1 X107.645 Y140.172 E2.51629
G1 X108.313 Y140.36 E0.06924
G1 X109.535 Y140.647 E0.12525
G1 X89.371 Y120.483 E2.84536
G1 X89.201 Y119.696 E0.08034
G1 X89.028 Y118.728 E0.09812
M566 X1800 Y1800
G0 F7200 X89.028 Y118.726
M566 X1200 Y1200
G1 F1350 X111.258 Y140.956 E3.13689
G1 X111.584 Y141.008 E0.03294
G1 X112.21 Y141.081 E0.06289
G1 X112.844 Y141.128 E0.06343
G1 X88.857 Y117.142 E3.38475
G1 X88.802 Y116.329 E0.08131
G1 X88.774 Y115.644 E0.06841
G1 X114.332 Y141.202 E3.60651
G1 X114.66 Y141.213 E0.03275
G1 X115.738 Y141.194 E0.10758
G1 X88.789 Y114.245 E3.8028
G1 X88.804 Y113.994 E0.02509
G1 X88.822 Y113.383 E0.06099
G1 X88.86 Y112.902 E0.04814
G1 X117.086 Y141.127 E3.98292
G1 X117.246 Y141.118 E0.01599
G1 X118.371 Y140.998 E0.11289
G1 X88.989 Y111.616 E4.14612
G1 X89.033 Y111.277 E0.03411
G1 X89.176 Y110.389 E0.08975
G1 X119.599 Y140.812 E4.29301
G1 X120.771 Y140.57 E0.11941
G1 X89.417 Y109.216 E4.42439
G1 X89.624 Y108.348 E0.08904
G1 X89.697 Y108.081 E0.02762
G1 X121.903 Y140.288 E4.54469
G1 X122.126 Y140.231 E0.02297
G1 X122.991 Y139.961 E0.09042
G1 X90.026 Y106.997 E4.65165
G1 X90.184 Y106.507 E0.05137
G1 X90.389 Y105.945 E0.05969
G1 X124.049 Y139.606 E4.74986
G1 X124.638 Y139.388 E0.06267
G1 X125.067 Y139.209 E0.04638
G1 X90.786 Y104.928 E4.83742
G1 X91.002 Y104.402 E0.05674
G1 X91.213 Y103.941 E0.05059
G1 X126.054 Y138.782 E4.91644
G1 X126.456 Y138.595 E0.04424
G1 X127.001 Y138.315 E0.06114
G1 X91.676 Y102.99 E4.98474
G1 X91.746 Y102.849 E0.01571
G1 X92.039 Y102.302 E0.06192
G1 X92.174 Y102.073 E0.02652
G1 X127.921 Y137.82 E5.04429
G1 X128.216 Y137.654 E0.03378
G1 X128.804 Y137.289 E0.06906
G1 X92.703 Y101.188 E5.09424
G1 X93.14 Y100.501 E0.08124
G1 X93.26 Y100.331 E0.02076
G1 X129.662 Y136.733 E5.13672
G1 X130.082 Y136.449 E0.05059
G1 X130.489 Y136.146 E0.05063
G1 X93.845 Y99.501 E5.17093
G1 X93.946 Y99.357 E0.01755
G1 X94.458 Y98.7 E0.08311
G1 X131.295 Y135.538 E5.19817
G1 X132.061 Y134.915 E0.09852
G1 X132.074 Y134.903 E0.00177
G1 X95.093 Y97.921 E5.21849
G1 X95.313 Y97.66 E0.03406
G1 X95.684 Y97.246 E0.05547
G1 X95.757 Y97.171 E0.01044
G1 X132.822 Y134.237 E5.23034
G1 X132.96 Y134.114 E0.01845
G1 X133.547 Y133.547 E0.08143
G1 X96.453 Y96.453 E5.23436
G1 X96.943 Y95.976 E0.06823
G1 X97.179 Y95.765 E0.03159
G1 X134.239 Y132.825 E5.22957
G1 X134.338 Y132.721 E0.01433
G1 X134.889 Y132.1 E0.08284
G1 X134.907 Y132.079 E0.00276
G1 X97.927 Y95.098 E5.21835
G1 X98.617 Y94.523 E0.08962
G1 X98.701 Y94.458 E0.0106
G1 X135.543 Y131.3 E5.1988
G1 X135.656 Y131.16 E0.01795
G1 X136.153 Y130.496 E0.08276
G1 X99.5 Y93.843 E5.17213
G1 X99.556 Y93.8 E0.00704
G1 X100.218 Y93.331 E0.08095
G1 X100.329 Y93.258 E0.01326
G1 X136.736 Y129.665 E5.13742
G1 X137.015 Y129.258 E0.04924
G1 X137.296 Y128.811 E0.05268
G1 X101.187 Y92.702 E5.09537
G1 X101.856 Y92.302 E0.07778
G1 X102.079 Y92.179 E0.02541
G1 X137.822 Y127.922 E5.04372
G1 X137.986 Y127.638 E0.03272
G1 X138.32 Y127.006 E0.07133
G1 X102.995 Y91.682 E4.98467
G1 X103.5 Y91.426 E0.05649
G1 X103.947 Y91.219 E0.04915
G1 X138.781 Y126.053 E4.91545
G1 X138.874 Y125.856 E0.02174
G1 X139.211 Y125.069 E0.08542
G1 X104.928 Y90.786 E4.8377
G1 X105.36 Y90.608 E0.04662
G1 X105.945 Y90.388 E0.06236
G1 X139.606 Y124.049 E4.74993
G1 X139.804 Y123.519 E0.05645
G1 X139.971 Y123 E0.0544
G1 X106.995 Y90.024 E4.65327
G1 X107.045 Y90.006 E0.0053
G1 X108.09 Y89.705 E0.10851
G1 X140.296 Y121.911 E4.54461
G1 X140.443 Y121.384 E0.05459
G1 X140.584 Y120.785 E0.0614
G1 X109.223 Y89.424 E4.42538
G1 X109.417 Y89.376 E0.01994
G1 X110.351 Y89.183 E0.09516
G1 X110.391 Y89.178 E0.00402
G1 X140.828 Y119.614 E4.29492
G1 X140.909 Y119.129 E0.04906
G1 X141.01 Y118.383 E0.07512
G1 X111.632 Y89.004 E4.14562
G1 X112.386 Y88.915 E0.07576
G1 X112.92 Y88.878 E0.05341
G1 X141.144 Y117.102 E3.98271
G1 X141.195 Y116.378 E0.07242
G1 X141.22 Y115.764 E0.06132
G1 X114.249 Y88.793 E3.8059
G1 X114.938 Y88.77 E0.06879
G1 X115.662 Y88.792 E0.07227
G1 X141.221 Y114.351 E3.60665
G1 X141.197 Y114.013 E0.03381
G1 X141.173 Y113.286 E0.07258
G1 X141.139 Y112.854 E0.04324
G1 X117.161 Y88.877 E3.38348
G1 X117.374 Y88.891 E0.0213
G1 X118.585 Y89.019 E0.12151
G1 X118.742 Y89.043 E0.01585
G1 X140.96 Y111.261 E3.1352
G1 X140.893 Y110.807 E0.04579
G1 X140.711 Y109.812 E0.10093
G1 X140.649 Y109.536 E0.02823
G1 X120.457 Y89.345 E2.84924
G1 X121.398 Y89.561 E0.09634
G1 X122.102 Y89.749 E0.07271
G1 X122.355 Y89.828 E0.02645
G1 X140.178 Y107.651 E2.51502
G1 X139.821 Y106.536 E0.11682
G1 X139.456 Y105.529 E0.10688
G1 X139.447 Y105.505 E0.00256
G1 X124.505 Y90.564 E2.10841
G1 X125.449 Y90.945 E0.10158
G1 X126.188 Y91.281 E0.081
G1 X126.999 Y91.679 E0.09014
G1 X127.075 Y91.72 E0.00862
G1 X138.299 Y102.944 E1.58383
G1 X138.276 Y102.898 E0.00513
G1 X137.997 Y102.372 E0.05941
G1 X137.457 Y101.448 E0.10679
G1 X136.894 Y100.559 E0.105
G1 X136.098 Y99.42 E0.13865
G1 X135.787 Y99.017 E0.05079
G1 X130.982 Y94.212 E0.67804
G1 X131.736 Y94.806 E0.09578
G1 X132.401 Y95.375 E0.08733
G1 X133.122 Y96.037 E0.09767
G1 X133.729 Y96.637 E0.08516
G1 X134.33 Y97.265 E0.08673
G1 X134.758 Y97.746 E0.06424
G1 X135.418 Y98.539 E0.10295
M566 X1800 Y1800
G0 F7200 X117.39 Y88.691
;TIME_ELAPSED:179.085925
;LAYER:-4
G0 X117.39 Y88.691 Z0.74
M566 X1200 Y1200
;TYPE:SUPPORT-INTERFACE
G1 F1800 X115.852 Y88.595 E0.05125
G1 X114.933 Y88.57 E0.03058
G1 X113.996 Y88.603 E0.03118
G1 X112.238 Y88.729 E0.05862
G1 X111.661 Y88.8 E0.01934
G1 X118.392 Y88.8 E0.22387
G1 X118.695 Y88.833 E0.01014
G1 X119.467 Y88.95 E0.02597
G1 X120.366 Y89.119 E0.03042
G1 X120.738 Y89.2 E0.01266
G1 X109.294 Y89.2 E0.38063
G1 X109.197 Y89.22 E0.00329
G1 X108.16 Y89.475 E0.03552
G1 X107.73 Y89.6 E0.01489
G1 X122.299 Y89.6 E0.48457
G1 X123.176 Y89.871 E0.03053
G1 X123.546 Y90 E0.01303
G1 X106.44 Y90 E0.56895
G1 X106.125 Y90.107 E0.01106
G1 X105.352 Y90.4 E0.0275
G1 X124.632 Y90.4 E0.64126
G1 X125.44 Y90.723 E0.02894
G1 X125.612 Y90.8 E0.00627
G1 X104.382 Y90.8 E0.70611
G1 X103.514 Y91.2 E0.03179
G1 X126.478 Y91.2 E0.76379
G1 X127.056 Y91.483 E0.0214
G1 X127.277 Y91.6 E0.00832
G1 X102.717 Y91.6 E0.81687
G1 X102.675 Y91.621 E0.00156
G1 X101.991 Y92 E0.02601
G1 X128.014 Y92 E0.86553
G1 X128.582 Y92.324 E0.02175
G1 X128.707 Y92.4 E0.00487
G1 X101.304 Y92.4 E0.91143
G1 X101.063 Y92.544 E0.00934
G1 X100.67 Y92.8 E0.0156
G1 X129.337 Y92.8 E0.95347
G1 X129.938 Y93.2 E0.02401
G1 X100.059 Y93.2 E0.99378
G1 X99.496 Y93.6 E0.02297
G1 X130.496 Y93.6 E1.03106
G1 X130.955 Y93.934 E0.01888
G1 X131.039 Y94 E0.00355
G1 X98.972 Y94 E1.06655
G1 X98.489 Y94.372 E0.02028
G1 X98.456 Y94.4 E0.00144
G1 X131.543 Y94.4 E1.10048
G1 X131.979 Y94.746 E0.01851
G1 X132.042 Y94.8 E0.00276
