;FLAVOR:RepRap
;TIME:2303
;Filament used: 1.98697m
;Layer height: 0.2
;Generated with Cura_SteamEngine 3.5.1
T0
M190 S50
M104 S200
M109 S200
M82 ;absolute extrusion mode
G28 XY                  ; Home XY
M561                    ; Clear any bed transform that might be in place
G1 X154.5 Y107.5 F4000  ; Move Probe to center of bed
G30                     ; Do a single probe
G29 S1                  ; Load heightmap
G1 Z5.0 F3000           ; Move Z Axis up little to prevent scratching of Heat Bed
G1 X0.1 Y20 Z0.3 F5000.0        ; Move to start position
G1 X0.1 Y200.0 Z0.3 F1500.0 E15 ; Draw the first line
G1 X0.4 Y200.0 Z0.3 F5000.0     ; Move to side a little
G1 X0.4 Y20 Z0.3 F1500.0 E30    ; Draw the second line
G1 Z5.0 F3000                   ; Move Z Axis up little to prevent scratching of Heat Bed
M83 ;relative extrusion mode
G1 F2400 E-1.5
;LAYER_COUNT:62
;LAYER:0
M107
M204 T5000
M566 X1800 Y1800
G0 F3600 X80.139 Y75.497 Z0.2
M204 P500
M566 X1200 Y1200
;TYPE:SKIRT
G1 F2400 E1.5
G1 F1800 X80.671 Y75.019 E0.02379
G1 X81.254 Y74.603 E0.02382
G1 X81.878 Y74.255 E0.02376
G1 X82.538 Y73.979 E0.02379
G1 X83.225 Y73.778 E0.02381
G1 X83.929 Y73.655 E0.02377
G1 X84.643 Y73.611 E0.02379
G1 X85.357 Y73.647 E0.02378
G1 X86.063 Y73.763 E0.0238
G1 X86.425 Y73.855 E0.01242
G1 X92.136 Y75.478 E0.19747
G1 X97.365 Y76.639 E0.17815
G1 X99.876 Y77.084 E0.08482
G1 X105.159 Y77.794 E0.17729
G1 X110.43 Y78.201 E0.17584
G1 X115.733 Y78.309 E0.17642
G1 X121.031 Y78.118 E0.17633
G1 X126.282 Y77.63 E0.1754
G1 X131.527 Y76.841 E0.17641
G1 X136.748 Y75.751 E0.1774
G1 X139.231 Y75.121 E0.0852
G1 X143.501 Y73.873 E0.14796
G1 X144.198 Y73.711 E0.0238
G1 X144.908 Y73.628 E0.02378
G1 X145.623 Y73.624 E0.02378
G1 X146.335 Y73.701 E0.02382
G1 X147.033 Y73.856 E0.02378
G1 X147.709 Y74.088 E0.02377
G1 X148.356 Y74.394 E0.0238
G1 X148.964 Y74.771 E0.02379
G1 X149.526 Y75.213 E0.02378
G1 X149.806 Y75.474 E0.01273
G1 X154.498 Y80.132 E0.2199
G1 X154.977 Y80.664 E0.02381
G1 X155.393 Y81.245 E0.02377
G1 X155.742 Y81.87 E0.02381
G1 X156.019 Y82.529 E0.02378
G1 X156.221 Y83.215 E0.02379
G1 X156.344 Y83.92 E0.0238
G1 X156.389 Y84.634 E0.02379
G1 X156.353 Y85.348 E0.02378
G1 X156.238 Y86.054 E0.02379
G1 X156.119 Y86.512 E0.01574
G1 X155.219 Y89.515 E0.10427
G1 X153.902 Y94.741 E0.17925
G1 X153.37 Y97.299 E0.0869
G1 X152.916 Y99.854 E0.08631
G1 X152.205 Y105.142 E0.17746
G1 X151.797 Y110.413 E0.17584
G1 X151.688 Y115.716 E0.17642
G1 X151.877 Y120.999 E0.17583
G1 X152.367 Y126.282 E0.17647
G1 X153.152 Y131.51 E0.17583
G1 X154.24 Y136.726 E0.17722
G1 X154.871 Y139.213 E0.08534
G1 X156.122 Y143.492 E0.14828
G1 X156.284 Y144.188 E0.02377
G1 X156.367 Y144.899 E0.02381
G1 X156.371 Y145.614 E0.02378
G1 X156.294 Y146.325 E0.02379
G1 X156.139 Y147.023 E0.02378
G1 X155.907 Y147.7 E0.0238
G1 X155.601 Y148.346 E0.02377
G1 X155.225 Y148.955 E0.0238
G1 X154.783 Y149.517 E0.02378
G1 X154.527 Y149.791 E0.01247
G1 X149.876 Y154.489 E0.21988
G1 X149.345 Y154.968 E0.02379
G1 X148.764 Y155.385 E0.02379
G1 X148.14 Y155.735 E0.0238
G1 X147.481 Y156.013 E0.02379
G1 X146.795 Y156.216 E0.02379
G1 X146.091 Y156.34 E0.02378
G1 X145.377 Y156.386 E0.0238
G1 X144.663 Y156.351 E0.02378
G1 X143.957 Y156.237 E0.02379
G1 X143.583 Y156.143 E0.01283
G1 X137.868 Y154.523 E0.19757
G1 X132.635 Y153.361 E0.17829
G1 X130.124 Y152.916 E0.08482
G1 X124.841 Y152.206 E0.17729
G1 X119.57 Y151.799 E0.17584
G1 X114.267 Y151.691 E0.17642
G1 X108.969 Y151.882 E0.17633
G1 X103.718 Y152.37 E0.1754
G1 X98.473 Y153.159 E0.17641
G1 X93.252 Y154.249 E0.1774
G1 X90.769 Y154.879 E0.0852
G1 X86.499 Y156.127 E0.14796
G1 X85.802 Y156.289 E0.0238
G1 X85.092 Y156.372 E0.02378
G1 X84.377 Y156.376 E0.02378
G1 X83.665 Y156.299 E0.02382
G1 X82.967 Y156.144 E0.02378
G1 X82.291 Y155.912 E0.02377
G1 X81.644 Y155.606 E0.0238
G1 X81.036 Y155.229 E0.02379
G1 X80.474 Y154.787 E0.02378
G1 X80.193 Y154.525 E0.01278
G1 X75.504 Y149.868 E0.2198
G1 X75.026 Y149.336 E0.02379
G1 X74.609 Y148.755 E0.02379
G1 X74.261 Y148.13 E0.02379
G1 X73.984 Y147.471 E0.02378
G1 X73.782 Y146.784 E0.02382
G1 X73.658 Y146.08 E0.02378
G1 X73.614 Y145.366 E0.02379
G1 X73.65 Y144.652 E0.02378
G1 X73.765 Y143.946 E0.02379
G1 X73.858 Y143.578 E0.01262
G1 X75.479 Y137.872 E0.19729
G1 X76.637 Y132.665 E0.17742
G1 X77.084 Y130.146 E0.08509
G1 X77.795 Y124.858 E0.17746
G1 X78.203 Y119.587 E0.17584
G1 X78.312 Y114.284 E0.17642
G1 X78.123 Y109.001 E0.17583
G1 X77.633 Y103.718 E0.17647
G1 X76.848 Y98.49 E0.17583
G1 X75.76 Y93.274 E0.17722
G1 X75.129 Y90.787 E0.08534
G1 X73.873 Y86.49 E0.1489
G1 X73.711 Y85.793 E0.0238
G1 X73.628 Y85.083 E0.02378
G1 X73.624 Y84.368 E0.02378
G1 X73.701 Y83.657 E0.02379
G1 X73.856 Y82.958 E0.02381
G1 X74.088 Y82.282 E0.02377
G1 X74.394 Y81.635 E0.0238
G1 X74.771 Y81.027 E0.02379
G1 X75.212 Y80.465 E0.02376
G1 X75.479 Y80.18 E0.01299
G1 X80.139 Y75.497 E0.21973
M566 X1800 Y1800
G0 F3600 X80.423 Y75.779
M566 X1200 Y1200
G1 F1800 X80.939 Y75.317 E0.02304
G1 X81.505 Y74.918 E0.02303
G1 X82.113 Y74.586 E0.02304
G1 X82.755 Y74.327 E0.02303
G1 X83.423 Y74.143 E0.02305
G1 X84.107 Y74.038 E0.02302
G1 X84.799 Y74.012 E0.02303
G1 X85.49 Y74.066 E0.02305
G1 X86.316 Y74.239 E0.02807
G1 X92.061 Y75.871 E0.19864
G1 X97.278 Y77.03 E0.17775
G1 X99.799 Y77.477 E0.08516
G1 X105.129 Y78.193 E0.17887
G1 X110.408 Y78.6 E0.1761
G1 X115.74 Y78.71 E0.17738
G1 X121.047 Y78.518 E0.17663
G1 X126.342 Y78.025 E0.17687
G1 X131.599 Y77.235 E0.17681
G1 X136.837 Y76.141 E0.17798
G1 X139.325 Y75.511 E0.08536
G1 X143.613 Y74.257 E0.14859
G1 X144.288 Y74.101 E0.02304
G1 X144.976 Y74.025 E0.02302
G1 X145.669 Y74.028 E0.02305
G1 X146.356 Y74.11 E0.02301
G1 X147.03 Y74.272 E0.02306
G1 X147.68 Y74.51 E0.02302
G1 X148.299 Y74.821 E0.02304
G1 X148.878 Y75.201 E0.02303
G1 X149.524 Y75.758 E0.02837
G1 X154.216 Y80.416 E0.2199
G1 X154.679 Y80.931 E0.02303
G1 X155.079 Y81.497 E0.02305
G1 X155.411 Y82.104 E0.02301
G1 X155.671 Y82.746 E0.02304
G1 X155.855 Y83.414 E0.02305
G1 X155.961 Y84.098 E0.02302
G1 X155.988 Y84.79 E0.02303
G1 X155.935 Y85.481 E0.02305
G1 X155.736 Y86.397 E0.03118
G1 X154.831 Y89.415 E0.1048
G1 X153.511 Y94.654 E0.1797
G1 X152.977 Y97.22 E0.08717
G1 X152.519 Y99.801 E0.08719
G1 X151.807 Y105.093 E0.1776
G1 X151.398 Y110.393 E0.1768
G1 X151.287 Y115.723 E0.17731
G1 X151.478 Y121.032 E0.17669
G1 X151.969 Y126.324 E0.17677
G1 X152.756 Y131.565 E0.17627
G1 X153.855 Y136.837 E0.17912
G1 X154.481 Y139.307 E0.08475
G1 X155.738 Y143.604 E0.14891
G1 X155.893 Y144.279 E0.02303
G1 X155.97 Y144.967 E0.02303
G1 X155.967 Y145.659 E0.02302
G1 X155.885 Y146.347 E0.02304
G1 X155.723 Y147.02 E0.02302
G1 X155.486 Y147.671 E0.02304
G1 X155.174 Y148.29 E0.02306
G1 X154.794 Y148.868 E0.02301
G1 X154.243 Y149.509 E0.02811
G1 X149.592 Y154.207 E0.21988
G1 X149.077 Y154.67 E0.02303
G1 X148.512 Y155.071 E0.02304
G1 X147.905 Y155.404 E0.02303
G1 X147.264 Y155.665 E0.02302
G1 X146.596 Y155.85 E0.02305
G1 X145.912 Y155.957 E0.02303
G1 X145.22 Y155.985 E0.02303
G1 X144.53 Y155.933 E0.02301
G1 X143.692 Y155.759 E0.02847
G1 X137.943 Y154.129 E0.19875
G1 X132.722 Y152.97 E0.17788
G1 X130.201 Y152.523 E0.08516
G1 X124.871 Y151.807 E0.17887
G1 X119.592 Y151.4 E0.1761
G1 X114.26 Y151.29 E0.17738
G1 X108.953 Y151.482 E0.17663
G1 X103.658 Y151.975 E0.17687
G1 X98.401 Y152.765 E0.17681
G1 X93.163 Y153.859 E0.17798
G1 X90.675 Y154.489 E0.08536
G1 X86.387 Y155.743 E0.14859
G1 X85.712 Y155.899 E0.02304
G1 X85.024 Y155.975 E0.02302
G1 X84.331 Y155.972 E0.02305
G1 X83.644 Y155.89 E0.02301
G1 X82.97 Y155.728 E0.02306
G1 X82.32 Y155.49 E0.02302
G1 X81.701 Y155.179 E0.02304
G1 X81.122 Y154.799 E0.02303
G1 X80.475 Y154.241 E0.02842
G1 X75.786 Y149.584 E0.2198
G1 X75.324 Y149.069 E0.02301
G1 X74.924 Y148.503 E0.02305
G1 X74.592 Y147.895 E0.02304
G1 X74.332 Y147.254 E0.02301
G1 X74.148 Y146.586 E0.02305
G1 X74.042 Y145.902 E0.02302
G1 X74.015 Y145.21 E0.02303
G1 X74.069 Y144.519 E0.02305
G1 X74.242 Y143.688 E0.02823
G1 X75.866 Y137.972 E0.19764
G1 X77.033 Y132.725 E0.17878
G1 X77.481 Y130.199 E0.08533
G1 X78.193 Y124.907 E0.1776
G1 X78.602 Y119.607 E0.1768
G1 X78.713 Y114.277 E0.17731
G1 X78.522 Y108.968 E0.17669
G1 X78.031 Y103.676 E0.17677
G1 X77.244 Y98.435 E0.17627
G1 X76.145 Y93.163 E0.17912
G1 X75.519 Y90.693 E0.08475
G1 X74.257 Y86.378 E0.14953
G1 X74.101 Y85.703 E0.02304
G1 X74.025 Y85.015 E0.02302
G1 X74.028 Y84.322 E0.02305
G1 X74.11 Y83.635 E0.02301
G1 X74.272 Y82.961 E0.02306
G1 X74.51 Y82.311 E0.02302
G1 X74.821 Y81.692 E0.02304
G1 X75.201 Y81.114 E0.02301
G1 X75.763 Y80.462 E0.02863
G1 X80.423 Y75.779 E0.21973
M566 X1800 Y1800
G0 F3600 X80.706 Y76.061
M566 X1200 Y1200
G1 F1800 X81.206 Y75.616 E0.02226
G1 X81.755 Y75.233 E0.02226
G1 X82.345 Y74.919 E0.02223
G1 X82.969 Y74.677 E0.02226
G1 X83.618 Y74.512 E0.02227
G1 X84.281 Y74.425 E0.02224
G1 X84.95 Y74.418 E0.02225
G1 X85.615 Y74.49 E0.02225
G1 X86.207 Y74.624 E0.02019
G1 X91.95 Y76.256 E0.19858
G1 X97.214 Y77.425 E0.17935
G1 X99.753 Y77.875 E0.08576
G1 X105.077 Y78.59 E0.17867
G1 X110.388 Y79 E0.17717
G1 X115.746 Y79.11 E0.17825
G1 X121.063 Y78.918 E0.17696
G1 X126.384 Y78.423 E0.17774
G1 X131.669 Y77.629 E0.17775
G1 X136.947 Y76.526 E0.17934
G1 X139.433 Y75.896 E0.0853
G1 X143.726 Y74.641 E0.14876
G1 X144.378 Y74.492 E0.02224
G1 X145.043 Y74.422 E0.02224
G1 X145.712 Y74.431 E0.02225
G1 X146.375 Y74.521 E0.02225
G1 X147.023 Y74.689 E0.02227
G1 X147.646 Y74.932 E0.02224
G1 X148.235 Y75.249 E0.02225
G1 X148.783 Y75.633 E0.02226
G1 X149.242 Y76.042 E0.02045
G1 X153.934 Y80.7 E0.2199
G1 X154.38 Y81.199 E0.02226
G1 X154.763 Y81.747 E0.02224
G1 X155.078 Y82.337 E0.02225
G1 X155.321 Y82.961 E0.02227
G1 X155.487 Y83.609 E0.02225
G1 X155.575 Y84.272 E0.02224
G1 X155.583 Y84.941 E0.02225
G1 X155.511 Y85.606 E0.02225
G1 X155.353 Y86.283 E0.02312
G1 X154.442 Y89.321 E0.10549
G1 X153.125 Y94.548 E0.17928
G1 X152.582 Y97.161 E0.08877
G1 X152.125 Y99.732 E0.08685
G1 X151.409 Y105.06 E0.1788
G1 X150.998 Y110.371 E0.17717
G1 X150.887 Y115.729 E0.17825
G1 X151.078 Y121.048 E0.17702
G1 X151.571 Y126.366 E0.17764
G1 X152.365 Y131.652 E0.17779
G1 X153.465 Y136.925 E0.17916
G1 X154.094 Y139.407 E0.08516
G1 X155.354 Y143.716 E0.14932
G1 X155.503 Y144.368 E0.02224
G1 X155.573 Y145.034 E0.02227
G1 X155.564 Y145.703 E0.02225
G1 X155.474 Y146.366 E0.02225
G1 X155.307 Y147.013 E0.02222
G1 X155.063 Y147.636 E0.02225
G1 X154.746 Y148.226 E0.02228
G1 X154.362 Y148.773 E0.02223
G1 X153.959 Y149.228 E0.02022
G1 X149.308 Y153.926 E0.21988
G1 X148.809 Y154.372 E0.02226
G1 X148.261 Y154.756 E0.02226
G1 X147.672 Y155.072 E0.02223
G1 X147.048 Y155.315 E0.02227
G1 X146.401 Y155.482 E0.02222
G1 X145.737 Y155.571 E0.02228
G1 X145.068 Y155.58 E0.02225
G1 X144.403 Y155.509 E0.02224
G1 X143.801 Y155.374 E0.02052
G1 X138.054 Y153.745 E0.19868
G1 X132.786 Y152.575 E0.17948
G1 X130.247 Y152.125 E0.08576
G1 X124.923 Y151.41 E0.17867
G1 X119.612 Y151 E0.17717
G1 X114.254 Y150.89 E0.17825
G1 X108.937 Y151.082 E0.17696
G1 X103.616 Y151.577 E0.17774
G1 X98.331 Y152.371 E0.17775
G1 X93.053 Y153.474 E0.17934
G1 X90.567 Y154.104 E0.0853
G1 X86.274 Y155.359 E0.14876
G1 X85.622 Y155.508 E0.02224
G1 X84.957 Y155.578 E0.02224
G1 X84.288 Y155.569 E0.02225
G1 X83.625 Y155.479 E0.02225
G1 X82.977 Y155.311 E0.02227
G1 X82.354 Y155.068 E0.02224
G1 X81.765 Y154.751 E0.02225
G1 X81.217 Y154.367 E0.02226
G1 X80.757 Y153.957 E0.02049
G1 X76.068 Y149.3 E0.2198
G1 X75.622 Y148.801 E0.02226
G1 X75.239 Y148.253 E0.02224
G1 X74.924 Y147.662 E0.02227
G1 X74.682 Y147.039 E0.02223
G1 X74.516 Y146.391 E0.02225
G1 X74.428 Y145.727 E0.02228
G1 X74.42 Y145.059 E0.02222
G1 X74.492 Y144.393 E0.02228
G1 X74.627 Y143.797 E0.02033
G1 X76.256 Y138.063 E0.19826
G1 X77.423 Y132.816 E0.17878
G1 X77.875 Y130.268 E0.08607
G1 X78.591 Y124.94 E0.1788
G1 X79.002 Y119.629 E0.17717
G1 X79.113 Y114.271 E0.17825
G1 X78.922 Y108.952 E0.17702
G1 X78.429 Y103.634 E0.17764
G1 X77.635 Y98.348 E0.17779
G1 X76.535 Y93.075 E0.17916
G1 X75.906 Y90.593 E0.08516
G1 X74.641 Y86.266 E0.14994
G1 X74.492 Y85.613 E0.02228
G1 X74.422 Y84.948 E0.02224
G1 X74.431 Y84.279 E0.02225
G1 X74.521 Y83.616 E0.02225
G1 X74.689 Y82.968 E0.02227
G1 X74.932 Y82.345 E0.02224
G1 X75.249 Y81.756 E0.02225
G1 X75.633 Y81.208 E0.02226
G1 X76.046 Y80.744 E0.02066
G1 X80.706 Y76.061 E0.21973
M566 X1800 Y1800
G0 F3600 X80.99 Y76.343
M566 X1200 Y1200
G1 F1800 X81.472 Y75.915 E0.02144
G1 X82.004 Y75.55 E0.02146
G1 X82.576 Y75.254 E0.02142
G1 X83.181 Y75.031 E0.02145
G1 X83.809 Y74.884 E0.02145
G1 X84.45 Y74.816 E0.02144
G1 X85.094 Y74.828 E0.02142
G1 X85.732 Y74.919 E0.02143
G1 X86.097 Y75.009 E0.0125
G1 X91.855 Y76.645 E0.19909
G1 X97.127 Y77.816 E0.17962
G1 X99.677 Y78.268 E0.08614
G1 X105.03 Y78.987 E0.17964
G1 X110.384 Y79.4 E0.1786
G1 X115.734 Y79.51 E0.17798
G1 X121.097 Y79.316 E0.17849
G1 X126.447 Y78.819 E0.17871
G1 X131.739 Y78.023 E0.17799
G1 X137.008 Y76.923 E0.17903
G1 X139.559 Y76.276 E0.08753
G1 X143.838 Y75.025 E0.14828
G1 X144.467 Y74.883 E0.02145
G1 X145.108 Y74.819 E0.02143
G1 X145.753 Y74.836 E0.02146
G1 X146.39 Y74.932 E0.02143
G1 X147.011 Y75.107 E0.02146
G1 X147.605 Y75.356 E0.02142
G1 X148.164 Y75.678 E0.02146
G1 X148.679 Y76.066 E0.02145
G1 X148.961 Y76.326 E0.01276
G1 X153.653 Y80.984 E0.2199
G1 X154.081 Y81.465 E0.02141
G1 X154.447 Y81.996 E0.02145
G1 X154.744 Y82.569 E0.02147
G1 X154.968 Y83.173 E0.02143
G1 X155.115 Y83.801 E0.02145
G1 X155.184 Y84.442 E0.02144
G1 X155.173 Y85.086 E0.02142
G1 X155.082 Y85.724 E0.02143
G1 X154.97 Y86.168 E0.01523
G1 X154.055 Y89.221 E0.10601
G1 X152.734 Y94.461 E0.17974
G1 X152.189 Y97.081 E0.08901
G1 X151.732 Y99.655 E0.08695
G1 X151.012 Y105.013 E0.17981
G1 X150.598 Y110.367 E0.17861
G1 X150.487 Y115.717 E0.17798
G1 X150.68 Y121.082 E0.17856
G1 X151.175 Y126.428 E0.17857
G1 X151.97 Y131.722 E0.17805
G1 X153.068 Y136.986 E0.17885
G1 X153.714 Y139.533 E0.0874
G1 X154.97 Y143.828 E0.14884
G1 X155.112 Y144.457 E0.02145
G1 X155.176 Y145.099 E0.02146
G1 X155.159 Y145.743 E0.02143
G1 X155.063 Y146.381 E0.02146
G1 X154.889 Y147.001 E0.02142
G1 X154.639 Y147.596 E0.02147
G1 X154.318 Y148.155 E0.02144
G1 X153.93 Y148.669 E0.02142
G1 X153.674 Y148.946 E0.01255
G1 X149.023 Y153.644 E0.21988
G1 X148.542 Y154.074 E0.02146
G1 X148.012 Y154.44 E0.02142
G1 X147.44 Y154.738 E0.02145
G1 X146.836 Y154.963 E0.02144
G1 X146.209 Y155.111 E0.02143
G1 X145.568 Y155.18 E0.02144
G1 X144.923 Y155.17 E0.02146
G1 X144.285 Y155.08 E0.02143
G1 X143.91 Y154.989 E0.01283
G1 X138.145 Y153.355 E0.1993
G1 X132.873 Y152.184 E0.17962
G1 X130.323 Y151.732 E0.08614
G1 X124.97 Y151.013 E0.17964
G1 X119.616 Y150.6 E0.1786
G1 X114.266 Y150.49 E0.17798
G1 X108.903 Y150.684 E0.17849
G1 X103.553 Y151.181 E0.17871
G1 X98.261 Y151.977 E0.17799
G1 X92.992 Y153.077 E0.17903
G1 X90.441 Y153.724 E0.08753
G1 X86.162 Y154.975 E0.14828
G1 X85.533 Y155.117 E0.02145
G1 X84.892 Y155.181 E0.02143
G1 X84.247 Y155.164 E0.02146
G1 X83.61 Y155.068 E0.02143
G1 X82.989 Y154.893 E0.02146
G1 X82.395 Y154.644 E0.02142
G1 X81.836 Y154.322 E0.02146
G1 X81.321 Y153.934 E0.02145
G1 X81.039 Y153.674 E0.01276
G1 X76.35 Y149.017 E0.2198
G1 X75.921 Y148.535 E0.02146
G1 X75.556 Y148.004 E0.02143
G1 X75.259 Y147.431 E0.02147
G1 X75.035 Y146.827 E0.02143
G1 X74.888 Y146.199 E0.02145
G1 X74.819 Y145.558 E0.02144
G1 X74.83 Y144.914 E0.02142
G1 X74.921 Y144.276 E0.02143
G1 X75.012 Y143.906 E0.01267
G1 X76.641 Y138.17 E0.19832
G1 X77.817 Y132.881 E0.18021
G1 X78.268 Y130.345 E0.08567
G1 X78.988 Y124.987 E0.17981
G1 X79.402 Y119.633 E0.17861
G1 X79.513 Y114.283 E0.17798
G1 X79.32 Y108.918 E0.17856
G1 X78.825 Y103.572 E0.17857
G1 X78.03 Y98.278 E0.17805
G1 X76.932 Y93.014 E0.17885
G1 X76.284 Y90.459 E0.08767
G1 X75.025 Y86.153 E0.14921
G1 X74.883 Y85.525 E0.02141
G1 X74.819 Y84.883 E0.02146
G1 X74.836 Y84.239 E0.02143
G1 X74.932 Y83.601 E0.02146
G1 X75.106 Y82.98 E0.02145
G1 X75.356 Y82.386 E0.02144
G1 X75.678 Y81.827 E0.02146
G1 X76.066 Y81.312 E0.02145
G1 X76.33 Y81.026 E0.01295
G1 X80.99 Y76.343 E0.21973
M566 X1800 Y1800
G1 F2400 E-1.5
G0 F3600 X83.772 Y79.962
G0 X84.676 Y80.865
G0 X102.13 Y98.297
G0 X102.229 Y98.307
M566 X1200 Y1200
;TYPE:WALL-INNER
G1 F2400 E1.5
